X:1
T:Tant que vivray
T:Tant que vivray
T:PAP2019
Z:PAP2019
%%score 1 { 2 | 3 }
L:1/8
Q:1/4=90
M:2/4
K:F
V:1 treble nm="Flauta" snm="Fl."
V:2 treble nm="Piano" snm="Pno."
V:3 bass 
V:1
 z4 | z4 | z4 | z4 |: %4
S"_DO         SIb   LA               SOL          SI                                           FA" c2"_MI" cB | %5
 A3 A | Gc c=B | c2 z2 | A2 AG | F3 F | B>A GF | E2 z2 | F2 FG | A/G/F/E/ FG | G F2 E | %15
 F2 z2!fine! :| FF/G/ AA | FF/G/ AA | cB A2 | cB A2 | FF/G/ AA | FF/G/ AA | cB A2 | cB AG | %24
 G F2 E | F2 z2!D.S.! |] %26
V:2
 [CFAc]2 [FAc] B | [DFA]3 A | [=B,DG] c [EGc] [DG=B] | [EGc] z z2 |: [FAc]2 F2 | [DFA]2 D2 | %6
 [=B,DG] c [EGc] [DG=B] | [EGc]2 C2 | [CFA]2 A2 | [DFA]2 D2 | [DFB]2 [DF=B]2 | [EGc]2 [EGc] [EGB] | %12
 [CFA]2 [CFA]2 | [DFA]2 [DFA] C | [B,DF]2 [CEG]2 | [A,CF]2 z2 :| [A,CF] z z2 | [A,CF] z z2 | %18
 [CEGc] z [CFA] z | [CEGc] z [CFA] z | [DFA] z z2 | [DFA] z z2 | [CEA] z [DFA] z | %23
 [CEA] z [DFA] z | [B,DF]2 [CEG]2 | [A,CF]2 F/ G/ A/ B/ |] %26
V:3
 [F,,F,]2 F,2 | [D,,D,]3/2 E,,/ F,, ^F,, | G,, z C, G,, | C, z z2 |: F,2 F, F, | D,3/2 E,/ F, ^F, | %6
 G,2 C, G,, | C,2 C/ B,/ A,/ G,/ | F,2 F, E, | D,3/2 E,/ F, ^F, | G,2 G,2 | %11
 C/ D/ C/ B,/ A,/ B,/ A,/ G,/ | F,2 F, E, | D,2 D, C, | B,,2 C,2 | F,2 z2 :| F, z z2 | F, z z2 | %18
 C, z F, z | C, z F, z | D, z z2 | D, z z2 | A,, z D, z | A,, z D, z | B,,2 C,2 | F,,2 z2 |] %26

